!!!COM: Haydn, Franz Joseph
!!!OTL: String Quartet in D Major
!!!OPS: Opus 76
!!!ONM: No. 5
!!!OMD: Largo ma non troppo: cantabile e mesto "Graveyard Largo"
!!!OMV: 2
!!!SCT: H III:79
!!!SCA: Thematisch-bibliographisches Werkevererzeichnis (A. van Hoboken)
!!!YOR: Trautwein Edition
!!!ENC: Frances Bennion
!!!CDT: 1732/3/31/-1809/5/31/
!!!CNT: Oesterreich
!!!YEC: Copyright (c) 1994, 2000 Center for Computer Assisted Research in the Humanities
!!!YEM: Rights to all derivative editions reserved.
!!!YEM: Refer to licensing agreement for further details.
!!!YEN: United States of America
**kern	**kern	**kern	**kern
*k[f#c#g#d#a#e#]	*k[f#c#g#d#a#e#]	*k[f#c#g#d#a#e#]	*k[f#c#g#d#a#e#]
*F#:	*F#:	*F#:	*F#:
*clefF4	*clefC3	*clefF	*clefF
*M4/4	*M4/4	*M4/4	*M4/4
2.r	2.r	2.r	2.r
4r	4r	4r	4c#
=1	=1	=1	=1
[1F#	1A#	1c#	4f#
.	.	.	4a#
.	.	.	4cc#
.	.	.	8.a#
.	.	.	16f#
=2	=2	=2	=2
1F#]	2B	2d#	4ff#
.	.	.	8.dd#
.	.	.	16b
.	2A#	2c#	4cc#
.	.	.	8.a#
.	.	.	16f#
=3	=3	=3	=3
[1C#	4G#	4B	4e#
.	4F#	4A#	4f#
.	4E#	4g#	4b
.	8.F#	4f#	4a#
.	16A#	.	.
=4	=4	=4	=4
2C#]	2c#	4.e#	4.g#
.	.	8f#	8a#
2r	2r	8e#	8g#
.	.	4.r	8r
.	.	.	4c#
=5	=5	=5	=5
[1FF#	1A#	1c#	4f#
.	.	.	4a#
.	.	.	4cc#
.	.	.	8.a#
.	.	.	16f#
=6	=6	=6	=6
1FF#]	2B	2d#	4ff#
.	.	.	8.dd#
.	.	.	16b
.	2A#	4c#	4cc#
.	.	4f#	8.a#
.	.	.	16f#
=7	=7	=7	=7
2BB	2G#	2f#	2dd#
2BB#	2G#	[2f#	8d#
.	.	.	8e#
.	.	.	8f#
.	.	.	8g#
=8	=8	=8	=8
1C#	4F#	2f#]	2a#
.	4A#	.	.
.	2B	2e#	8.g#
.	.	.	16f#
.	.	.	8.g#
.	.	.	16a#
=9	=9	=9	=9
4F#	4A#	4f#	4f#
4F#	4A#	4c#	2r
4F#	4A#	4c#	.
4F#	4A#	4c#	8.r
.	.	.	16cc#
=10	=10	=10	=10
4F#	4B	4e#	8.g#
.	.	.	16c#
4F#	4B	4e#	8.b
.	.	.	16a#
4F#	4B	4e#	8g#
.	.	.	4r
4F#	4B	4e#	.
.	.	.	16r
.	.	.	16cc#
=11	=11	=11	=11
4F#	4A#	4f#	8.f#
.	.	.	16c#
4F#	4A#	4c#	8.a#
.	.	.	16g#
4F#	4A#	4c#	8f#
.	.	.	4r
4F#	4A#	4c#	.
.	.	.	16r
.	.	.	16cc#
=12	=12	=12	=12
4F#	4B	4e#	8.g#
.	.	.	16c#
4F#	4B	4e#	8.b
.	.	.	16a#
4F#	4B	4e#	8g#
.	.	.	4r
4F#	4B	4e#	.
.	.	.	16r
.	.	.	16cc#
=13	=13	=13	=13
2F#	2A#	2f#	8.a#
.	.	.	16f#
.	.	.	8.cc#
.	.	.	32a#
.	.	.	32cc#
2r	2r	2r	8.ff#
.	.	.	16cc#
.	.	.	8.aa#
.	.	.	16gg#
=14	=14	=14	=14
2d#	2d#	[1a#	4ff#
.	.	.	8.ff#
.	.	.	16gg#
2A#	2c##	.	4ee#
.	.	.	8.aa#
.	.	.	16ff#
=15	=15	=15	=15
2B	2d#	4a#]	4dd#
.	.	4g##	8.dd#
.	.	.	16ee#
4A#	4e#	4a#	4cc##
4G#	4c##	4e#	4a#
=16	=16	=16	=16
1F#	4A#	[1f#	4dd#
.	2d#	.	4ff#
.	.	.	4aa#
.	4d#	.	16gg#
.	.	.	16ff#
.	.	.	16ee#
.	.	.	16dd#
=17	=17	=17	=17
2.G#	2.d#	2.f#]	2cc#
.	.	.	4b#
4GG#	4r	4r	4r
=18	=18	=18	=18
4C#	2r	[1g#	8.ee#
.	.	.	16g#
4E#	.	.	8.gg#
.	.	.	16ff#
4G#	2C#	.	8ee#
.	.	.	4r
8.E#	.	.	.
.	.	.	16r
16C#	.	.	16g#
=19	=19	=19	=19
4BB#	4BB#	1g#]	8.dd#
.	.	.	16g#
4D#	4r	.	8.ff#
.	.	.	16ee#
4G#	4BB#	.	8dd#
.	.	.	4r
8.D#	4B#	.	.
.	.	.	16r
16BB#	.	.	16g#
=20	=20	=20	=20
4C#	4c#	8.ee#	2gg#
.	.	16g#	.
4r	4e#	8.gg#	.
.	.	16ff#	.
4CC#	4g#	8ee#	4gg#
.	.	4r	.
4EE#	8.e#	.	4gg#
.	.	16r	.
.	16c#	16g#	.
=21	=21	=21	=21
4GG#	4B#	8.dd#	[1gg#
.	.	16g#	.
4r	4d#	8.ff#	.
.	.	16ee#	.
2BBB#	4g#	8dd#	.
.	.	4r	.
.	8.f#	.	.
.	.	16r	.
.	16d#	16g#	.
=22	=22	=22	=22
4CC#	4c#	8.ee#	1gg#_
.	.	16g#	.
2.r	8.e#	8.gg#	.
.	16d#	16ff#	.
.	4c#	4ee#	.
.	4B#	4dd#	.
=23	=23	=23	=23
2r	8.A#	1cc#	2gg#]
.	16c#	.	.
.	8.e#	.	.
.	16c#	.	.
8.D#	2a#	.	[2ff#
16F#	.	.	.
8.A#	.	.	.
16F#	.	.	.
=24	=24	=24	=24
4d#	8.G#	2b#	2ff#]
.	16B#	.	.
4r	8.d#	.	.
.	16B#	.	.
8.C#	2g#	2cc#	2ee#
16E#	.	.	.
8.G#	.	.	.
16E#	.	.	.
=25	=25	=25	=25
2F#	1a#	[1cc#	8.dd#
.	.	.	16ff#
.	.	.	8.aa#
.	.	.	16ff#
2F##	.	.	4dd#
.	.	.	4dd#
=26	=26	=26	=26
1G#	2g#	2cc#]	[2dd#
.	4f#	2b#	8dd#]
.	.	.	8ee#
.	4d#	.	8ff#
.	.	.	8gg#
=27	=27	=27	=27
2.A#	2.c#	2.cc#	2ff#
.	.	.	8.ee#
.	.	.	16ccc#
4r	4r	4r	8.gg#
.	.	.	16ee#
=28	=28	=28	=28
2E#	2c#	2G#	8.cc#
.	.	.	16cc#
.	.	.	8.g#
.	.	.	16e#
2EE#	2G#	2c#	8.c#
.	.	.	16e#
.	.	.	8.g#
.	.	.	16e#
=29	=29	=29	=29
1FF#	[1A#	[1c#	8.d#
.	.	.	16f#
.	.	.	8.a#
.	.	.	16f#
.	.	.	4d#
.	.	.	4d#
=30	=30	=30	=30
1FF##	1A#]	1c#_	8.e
.	.	.	16a#
.	.	.	8.cc#
.	.	.	16a#
.	.	.	4e
.	.	.	4e
=31	=31	=31	=31
[1GG#	4G#	1c#_	8.e#
.	.	.	16g#
.	4E#	.	8.cc#
.	.	.	16g#
.	2C#	.	4ee#
.	.	.	16dd#
.	.	.	16cc#
.	.	.	16b#
.	.	.	16a#
=32	=32	=32	=32
1GG#]	4D#	2c#]	[2g#
.	4E#	.	.
.	2F#	2B#	8g#]
.	.	.	8f#
.	.	.	8e#
.	.	.	8d#
=33	=33	=33	=33
4CC#	8E#	8.c#	4c#
.	4G#	.	.
.	.	16G#	.
4EE#	.	8.g#	2.r
.	4G#	.	.
.	.	16f#	.
4GG#	.	8e#	.
.	4G#	4r	.
8.EE#	.	.	.
.	[8G#	16r	.
16CC#	.	16G#	.
=34	=34	=34	=34
4BBB#	8G#]	8.d#	2..r
.	4G#	.	.
.	.	16G#	.
4DD#	.	8.f#	.
.	4G#	.	.
.	.	16e#	.
4GG#	.	8d#	.
.	4G#	4.r	.
8.FF#	.	.	.
.	8G#	.	16r
16DD#	.	.	16g#
=35	=35	=35	=35
4CC#	4C#	[1g#	8.ee
.	.	.	16g#
4r	4E	.	8.gg#
.	.	.	16ff#
4CC#	4G#	.	8ee
.	.	.	4r
4EE	8.E	.	.
.	.	.	16r
.	16C#	.	16g#
=36	=36	=36	=36
4GG#	4BB#	1g#_	8.dd#
.	.	.	16g#
4r	4D#	.	8.ff#
.	.	.	16ee
4BBB#	4G#	.	8dd#
.	.	.	4r
4BB#	8.F#	.	.
.	.	.	16r
.	16D#	.	16g#
=37	=37	=37	=37
2C#	2C#	1g#_	8.ee
.	.	.	16g#
.	.	.	8.gg#
.	.	.	16ee
2BB	2D#	.	8.dd#
.	.	.	16g#
.	.	.	8.gg#
.	.	.	16dd#
=38	=38	=38	=38
1AA	4E	4g#]	4cc#
.	8F#	8f#	8.dd#
.	8G#	8e	.
.	.	.	16ee
.	2A	4d#	4ff#
.	.	4c#	4ff##
=39	=39	=39	=39
1GG#	4G#	4B#	4gg#
.	4B#	4d#	4gg#
.	4.c#	2e	8ff#
.	.	.	8ee
.	.	.	8dd#
.	8e	.	8cc#
=40	=40	=40	=40
2.GG#	2.g#	2.d#	2.b#
4r	4r	4r	4b
=41	=41	=41	=41
[1e	1g#	1b	4ee
.	.	.	4gg#
.	.	.	4bb
.	.	.	8.gg#
.	.	.	16ee
=42	=42	=42	=42
1e]	2a	2cc#	4eee
.	.	.	8.ccc#
.	.	.	16aa
.	2g#	2b	4bb
.	.	.	8.gg#
.	.	.	16ee
=43	=43	=43	=43
[1B	4f#	4a	4dd#
.	4e	4g#	4ee
.	4d#	4ff#	4aa
.	8.e	4ee	4gg#
.	16g#	.	.
=44	=44	=44	=44
2B]	2b	4.dd#	4.ff#
.	.	8ee	8gg#
2r	2r	8dd#	8ff#
.	.	4.r	8r
.	.	.	4B
=45	=45	=45	=45
1EE	1E	1e	4e
.	.	.	4g
.	.	.	4b
.	.	.	8.g
.	.	.	16e
=46	=46	=46	=46
4DD#	4D#	4d#	4d#
2.DD	2.D	2.d	4f#
.	.	.	4b
.	.	.	8.f#
.	.	.	16d
=47	=47	=47	=47
4CC#	4C#	4c#	4c#
2CC	2C	2.c	4e
.	.	.	4a
4C	4c	.	8.e
.	.	.	16c
=48	=48	=48	=48
2BB	4B	4B	4B
.	4d	4G	4g
4AA	4c	4A	4f#
4GG	4B	4B	4e
=49	=49	=49	=49
2FF#	2A	2c	4.d
.	.	.	8e
4FF#	4A	4c	4d
4FF#	4A	4c	4d
=50	=50	=50	=50
2.FF#	2.A	2.c	2.d
4r	4D	4r	4r
=51	=51	=51	=51
1r	4G	8g	8b
.	.	8g	8b
.	4B	8g	8b
.	.	8g	8b
.	4d	8g	8b
.	.	8g	8b
.	8.B	8g	8b
.	.	8g	8b
.	16G	.	.
=52	=52	=52	=52
1r	2c#	8g	8a
.	.	8g	8a
.	.	8g	8a
.	.	8g	8a
.	4d#	8f#	8a
.	.	8f#	8a
.	4D#	8a	8cc
.	.	8a	8cc
=53	=53	=53	=53
1r	4E	8a	8b
.	.	8a	8b
.	4G	8g	8b
.	.	8g	8b
.	4B	8g	8b
.	.	8g	8b
.	8.G	8g	8b
.	.	8g	8b
.	16F#	.	.
=54	=54	=54	=54
2.r	2E#	8b	8dd
.	.	8b	8dd
.	.	8b	8dd
.	.	8b	8dd
.	2e#	8b	8cc#
.	.	8b	8cc#
4CC#	.	8b	8cc#
.	.	8b	8cc#
=55	=55	=55	=55
4FF#	8f#	8a	8cc#
.	8f#	8a	8cc#
4AA	8f#	8a	8cc#
.	8f#	8a	8cc#
4C#	8f#	8a	8cc#
.	8f#	8a	8cc#
8.AA	8f#	8a	8cc#
.	8f#	8a	8cc#
16FF#	.	.	.
=56	=56	=56	=56
4EE#	8c#	8g#	8cc#
.	8e#	8g#	8cc#
4GG#	8e#	8g#	8cc#
.	8e#	8g#	8cc#
4C#	8e#	8g#	8cc#
.	8e#	8g#	8cc#
8.GG#	8e#	8g#	8cc#
.	8e#	8g#	8cc#
16FF#	.	.	.
=57	=57	=57	=57
4EE	8e	8g#	8cc#
.	8e	8g#	8cc#
4GG#	8e	8g#	8cc#
.	8e	8g#	8cc#
4C#	8e	8g#	8cc#
.	8e	8g#	8cc#
8.GG#	8e	8g#	8cc#
.	8e	8g#	8cc#
16EE	.	.	.
=58	=58	=58	=58
4DD	8d	8f#	8cc#
.	8d	8f#	8cc#
4FF#	8d	8f#	8cc#
.	8d	8f#	8cc#
4AA	8d	8f#	8b#
.	8d	8f#	8b#
8.FF#	8d	8f#	8b#
.	8d	8f#	8b#
16DD	.	.	.
=59	=59	=59	=59
4CC#	8c#	8e#	8cc#
.	8c#	8e#	8cc#
4EE#	8c#	8e#	8cc#
.	8c#	8e#	8cc#
4GG#	8c#	8e#	8cc#
.	8c#	8e#	8cc#
8.EE#	8c#	8e#	8cc#
.	8c#	8e#	8cc#
16CC#	.	.	.
=60	=60	=60	=60
4DD	8d	8f#	8b#
.	8d	8f#	8b#
4FF#	8d	8f#	8b#
.	8d	8f#	8b#
4AA	8d	8f#	8b#
.	8d	8f#	8b#
8.FF#	8d	8f#	8b#
.	8d	8f#	8b#
16DD	.	.	.
=61	=61	=61	=61
2CC#	2c#	2e#	2cc#
4CC#	4G#	4e#	4cc#
4CC#	4G#	4e#	4cc#
=62	=62	=62	=62
2.CC#	2.G#	2.e#	2.cc#
4r	4r	4r	4c#
=63	=63	=63	=63
[1F#	1A#	1c#	4f#
.	.	.	4a#
.	.	.	4cc#
.	.	.	8.a#
.	.	.	16f#
=64	=64	=64	=64
1F#]	2B	2d#	4ff#
.	.	.	8.dd#
.	.	.	16b
.	2A#	2c#	4cc#
.	.	.	8.a#
.	.	.	16f#
=65	=65	=65	=65
[1C#	4G#	4B	4e#
.	4F#	4A#	4f#
.	4E#	4g#	4b
.	8.F#	4f#	4a#
.	16A#	.	.
=66	=66	=66	=66
2C#]	2c#	4.e#	4.g#
.	.	8f#	8a#
2r	2r	8e#	8g#
.	.	4.r	8r
.	.	.	4c#
=67	=67	=67	=67
[1FF#	1A#	1c#	4f#
.	.	.	4a#
.	.	.	4cc#
.	.	.	8.a#
.	.	.	16f#
=68	=68	=68	=68
1FF#]	2B	2d#	4ff#
.	.	.	8.dd#
.	.	.	16b
.	2A#	4c#	4cc#
.	.	4f#	8.a#
.	.	.	16f#
=69	=69	=69	=69
2BB	2G#	2f#	2dd#
2BB#	2G#	[2f#	8d#
.	.	.	8e#
.	.	.	8f#
.	.	.	8g#
=70	=70	=70	=70
1C#	4F#	2f#]	2a#
.	4A#	.	.
.	2B	2e#	8.g#
.	.	.	16f#
.	.	.	8.g#
.	.	.	16a#
=71	=71	=71	=71
4D#	4A#	4f#	4f#
2.r	2.r	2.r	8r
.	.	.	8f#
.	.	.	8e#
.	.	.	8f#
.	.	.	8g#
.	.	.	8a#
=72	=72	=72	=72
2E#	[1c#	2g#	2b
2F#	.	8.f#	8.a#
.	.	16e#	16g#
.	.	8.f#	8.a#
.	.	16g#	16b
=73	=73	=73	=73
4C#	4c#]	4e#	4g#
2.r	2.r	4.r	8r
.	.	.	8f##
.	.	.	8g#
.	.	8f##	8a#
.	.	8g#	8b
.	.	8a#	8cc#
=74	=74	=74	=74
2.r	2e#	2.b	8.dd#
.	.	.	16cc#
.	.	.	4..gg#
.	2E#	.	.
.	.	.	16gg#
4C#	.	8a#	8.aa#
.	.	8g#	.
.	.	.	16bb
=75	=75	=75	=75
4F#	4F#	8a#	8.aa#
.	.	4cc#	.
.	.	.	16cc#
4A#	4r	.	8.ccc#
.	.	4cc#	.
.	.	.	16bb
4c#	2F#	.	8aa#
.	.	4cc#	4r
8.A#	.	.	.
.	.	[8cc#	16r
16F#	.	.	16aa#
=76	=76	=76	=76
4E#	4E#	8cc#]	8.gg#
.	.	4cc#	.
.	.	.	16cc#
4G#	4r	.	8.bb
.	.	4cc#	.
.	.	.	16aa#
4c#	4E#	.	8gg#
.	.	4cc#	4r
8.B	4e#	.	.
.	.	8cc#	16r
16G#	.	.	16cc#
=77	=77	=77	=77
4F#	4f#	8.aa#	2ccc#
.	.	16cc#	.
4r	4a#	8.ccc#	.
.	.	16bb	.
4F#	4cc#	8aa#	4ccc#
.	.	4r	.
4A#	8.a#	.	4ccc#
.	.	16r	.
.	16f#	16cc#	.
=78	=78	=78	=78
4c#	4e#	8.gg#	[1ccc#
.	.	16cc#	.
4r	4g#	8.bb	.
.	.	16aa#	.
2E#	4cc#	8gg#	.
.	.	4r	.
.	8.b	.	.
.	.	16r	.
.	16g#	16cc#	.
=79	=79	=79	=79
4F#	4f#	8.aa#	1ccc#_
.	.	16cc#	.
2.r	8.a#	8.ccc#	.
.	16g#	16bb	.
.	4f#	4aa#	.
.	4e#	4gg#	.
=80	=80	=80	=80
2r	8.d#	1ff#	2ccc#]
.	16f#	.	.
.	8.a#	.	.
.	16f#	.	.
8.G#	2dd#	.	[2bb
16B	.	.	.
8.d#	.	.	.
16B	.	.	.
=81	=81	=81	=81
4g#	8.c#	2ee#	2bb]
.	16e#	.	.
4r	8.g#	.	.
.	16e#	.	.
8.F#	2cc#	2ff#	2aa#
16A#	.	.	.
8.c#	.	.	.
16A#	.	.	.
=82	=82	=82	=82
2B	1dd#	[1ff#	8.gg#
.	.	.	16bb
.	.	.	8.ddd#
.	.	.	16bb
2B#	.	.	4gg#
.	.	.	4gg#
=83	=83	=83	=83
1c#	2cc#	2ff#]	[2gg#
.	4b	2ee#	8gg#]
.	.	.	8aa#
.	4g#	.	8bb
.	.	.	8ccc#
=84	=84	=84	=84
2.d#	2.f#	2.ff#	2bb
.	.	.	8.aa#
.	.	.	16fff#
4r	4r	4r	8.ccc#
.	.	.	16aa#
=85	=85	=85	=85
2A#	2f#	2c#	8.ff#
.	.	.	16ff#
.	.	.	8.cc#
.	.	.	16a#
2AA#	2c#	2f#	8.f#
.	.	.	16a#
.	.	.	8.cc#
.	.	.	16a#
=86	=86	=86	=86
1BB	[1d#	[1f#	8.g#
.	.	.	16b
.	.	.	8.dd#
.	.	.	16b
.	.	.	4g#
.	.	.	4g#
=87	=87	=87	=87
1BB#	1d#]	1f#_	8.a
.	.	.	16dd#
.	.	.	8.ff#
.	.	.	16dd#
.	.	.	4a
.	.	.	4a
=88	=88	=88	=88
[1C#	4c#	1f#_	8.a#
.	.	.	16cc#
.	4A#	.	8.ff#
.	.	.	16cc#
.	2F#	.	4aa#
.	.	.	16gg#
.	.	.	16ff#
.	.	.	16ee#
.	.	.	16dd#
=89	=89	=89	=89
1C#]	4G#	2f#]	[2cc#
.	4A#	.	.
.	2B	2e#	8cc#]
.	.	.	8b
.	.	.	8a#
.	.	.	8g#
=90	=90	=90	=90
4F#	4A#	4f#	4f#
4F#	4A#	4c#	2r
4F#	4A#	4c#	.
4F#	4A#	4c#	8.r
.	.	.	16cc#
=91	=91	=91	=91
4F#	4B	4e#	8.g#
.	.	.	16c#
4F#	4B	4e#	8.b
.	.	.	16a#
4F#	4B	4e#	8g#
.	.	.	4r
4F#	4B	4e#	.
.	.	.	16r
.	.	.	16cc#
=92	=92	=92	=92
4F#	4A#	4f#	8.f#
.	.	.	16c#
4F#	4A#	4c#	8.a#
.	.	.	16g#
4F#	4A#	4c#	8f#
.	.	.	4r
4F#	4A#	4c#	.
.	.	.	16r
.	.	.	16cc#
=93	=93	=93	=93
4F#	4B	4e#	8.g#
.	.	.	16c#
4F#	4B	4e#	8.b
.	.	.	16a#
4F#	4B	4e#	8g#
.	.	.	4r
4F#	4B	4e#	.
.	.	.	16r
.	.	.	16cc#
=94	=94	=94	=94
8FF#	8A#	8f#	8f#
4.r	4.r	4.r	4r
.	.	.	16r
.	.	.	16cc#
8C#	8c#	8e#	8g#
4.r	4.r	4.r	4r
.	.	.	16r
.	.	.	16cc#
=95	=95	=95	=95
8F#	8F#	8f#	8a#
4.r	4.r	4.r	4r
.	.	.	16r
.	.	.	16cc#
8C#	8G#	8B	8e#
4.r	4.r	4.r	4r
.	.	.	16r
.	.	.	16cc#
=96	=96	=96	=96
4F#	4F#	4A#	4f#
4r	4r	4r	4r
4FF#	4C#	4A#	4f#
4FF#	4C#	4A#	4f#
=97	=97	=97	=97
1FF#	1C#	1A#	1f#
==	==	==	==
*-	*-	*-	*-
!!!RWG1: This file contains only pitch and duration data.
!!!RWG2: Transposing instruments are not transposed.
!!!RWG3: Spines may have incompatible meters.
!!!RWG4: Durations of rests and tied notes may be interpreted.
!!!RWG: Key is interpreted using the Humdrum key tool.
!!!GTL: 6 Quartetti ("Erdödy")
!!!AFT: stage1
!!!END: 1997/04/15
!!!KEY: 4267528239
!!!EMD: Converted from MuseData to Humdrum Dec 16, 2000, by Andreas Kornstaedt using muse2kern.
!!!EMD: Manual editing by Craig Sapp, Nov 2001
